X:115
T: Boys at Boland's Mills
C: BB
R: hornpipe
Q: 300
M: 4/4
L: 1/8
K: G
(3EDC|"G"B,DGB "C"cecA|"G"Bd (3BAG "C"EDCE|"G"DG"D"FA "G"GB"Am"Ac|\
"Em"Be"A"d^c "D"d2 (3EDC |
"G"B,DGB "C"cecA|"G"Bd (3BAG "C"EDCE|"G"DGBG "Am"EcAF|"G"G2 GF G2 :|
(3Bcd|"Em"edBd gdBd|"G"gaba "Em7"gedg|"G"bg"D"af "G"gedg|"A"ed^ce "D"d2(3EDC |
"G"B,DGB "C"cecA|"G"Bd (3BAG "C"EDCE|"G"DGBd "Am"ceag|"D"fdcA "G"G2 :|
%%%%%%%%%%%%%%%%%%%%%%%%%%%%%%%%%%%%%%%%%%%
